X:1
T:Title
%%score { ( 1 3 ) | ( 2 4 ) }
L:1/8
Q:1/4=100
M:4/4
K:Bb
V:1 treble nm="Grand Piano"
V:3 treble 
V:2 bass 
V:4 bass 
V:1
 B,2 D>E F2 DF | B2 c>c [Fd]2 z2 | [Fe]2 [Fd]>[Fc] [FB]2 [EA][DB] | z4 c2[K:bass] z2 | %4
w: James~McGranahan * * * * *||||
 B,2 D>[K:treble]E F2 DF | B2 c>c [Fd]2 z2 | [=Ed]2 [Ec]>[B,EB] [CEA]2 [B,EG]2 | [A,F]6 z2 | %8
w: ||||
 [A,F]2 [B,FG][EFA] [DFB]>[CFc] [Fd]2 | [=B,G]2 [CGA][FG=B] [EGc]>[DGd] [Ge]c |[M:9/8] f6- f z z | %11
w: |||
[M:4/4] [DFB]6 z2 |] %12
w: |
V:2
 B,,2 D,>E, F,2 D,F, | B,2 [F,A,F]>[F,A,F] [B,,B,]2 z2 | %2
 [A,,C]2 [B,,B,]>[C,A,] [D,B,]2 [C,F,][B,,F,] | [F,A,F]>[F,G,F] [F,A,F][F,B,F] .[F,A,F]2 z2 | %4
 B,,2 D,>E, F,2 D,F, | B,2 [F,A,F]>[F,A,F] [B,,B,]2 z2 | [C,B,]2 [C,B,]>C, C,2 C,2 | F,6 z2 | %8
 F,E,D,C, B,,>B,, [B,,B,]2 | G,F,E,D, C,>C, [C,C][G,B,=E] |[M:9/8] [A,F]B,C D E2- E F,2 | %11
[M:4/4] B,,6 z2 |] %12
V:3
 x8 | x8 | x8 | c>=B cd z[K:bass] E,D,C, | x7/2[K:treble] x9/2 | x8 | x8 | x8 | x8 | x8 | %10
[M:9/8] z GA B c2- c [EFA]2 |[M:4/4] x8 |] %12
V:4
 x8 | x8 | x8 | x8 | x8 | x8 | x8 | x8 | x8 | x8 |[M:9/8] F,6- F, z z |[M:4/4] x8 |] %12

